!!!!SEGMENT: pl-wn--mus-iii-75-272-2_zelenski-wladyslaw--piesni-kazimierza-tetmajera-cien-chopina.krn
!!!cenid: 18xx:3764
!!!COM: Żeleński, Władysław
!!!COM-rismid: pe41024455
!!!CDT:
!!!CNT:
!!!OTL: Pieśni Kazimierza Tetmajera/Cień Chopina
!!!PDT:
!!!AGN:
!!!SMS-siglum: PL-Wn
!!!SMS-shelfmark: Mus.III.75.272/2
!!!SMS-shelfwork: W
!!!SMS-variant:
!!!SMS-altvar:
!!!NIFC-rismid:
!!!URL-scan: https://polona.pl/item/piesni-kazimierza-tetmajera-2-cien-chopina,NzE0NTUzMTU/0/#info:metadata
!!!ONB-nifc:
!!!OMD: Andantino.
!!!key: a
**kern	**kern	**dynam	**kern	**text	**dynam
*part2	*part2	*part2	*part1	*part1	*part1
*staff3	*staff2	*	*staff1	*staff1	*
*I"Fortepian.	*I"Fortepian.	*	*I"Śpiew.	*	*
*Ipiano	*Ipiano	*	*Ivox	*	*
*ICklav	*ICklav	*	*ICvox	*	*
*clefF4	*clefG2	*	*clefG2	*	*
*k[]	*k[]	*	*k[]	*	*
*a:	*a:	*	*a:	*	*
*M3/4	*M3/4	*	*M3/4	*	*
=1	=1	=1	=1	=1	=1
*^	*	*	*	*	*
(2.E/	2.AA\	4r	p	2.r	.	.
.	.	[2A^>/ [2e	.	.	.	.
=2	=2	=2	=2	=2	=2	=2
2.G/	2.AA\	4A/] 4e]	.	2.r	.	.
.	.	[2A^>/ [2d#X	.	.	.	.
=3	=3	=3	=3	=3	=3	=3
2.F/	2.AA\	4A/] 4d#]	.	2.r	.	.
.	.	[2A^>/ [2dn	.	.	.	.
=4	=4	=4	=4	=4	=4	=4
2E/	2.AA\	4A/] 4d]	.	2.r	.	.
.	.	[2A^>/ [2c	.	.	.	.
8F/L	.	.	.	.	.	.
8C/J)	.	.	.	.	.	.
=5	=5	=5	=5	=5	=5	=5
!	!	!	!LO:HP:t=poco cresc.	!	!	!
(2E/	2.AA\	4A/] 4c]	<	2.r	.	.
.	.	[2A/ [2B	.	.	.	.
8F/L	.	.	.	.	.	.
8D/J	.	.	.	.	.	.
=6	=6	=6	=6	=6	=6	=6
2E/	2.AA\	4A/] 4B]	.	2.r	.	.
.	.	[2A/ [2B	.	.	.	.
8G/L	.	.	.	.	.	.
8F/J)	.	.	.	.	.	.
=7	=7	=7	=7	=7	=7	=7
(2E/	2.AA\	4A/] 4B]	.	2.r	.	.
.	.	[2A/ [2B	.	.	.	.
8F/L	.	.	.	.	.	.
8D/J)	.	.	.	.	.	.
!!LO:LB:g=original
=8	=8	=8	=8	=8	=8	=8
!	!	!	!LO:HP:a	!	!	!
(2E/	2.AA\	4A/] 4B]	>	2.r	.	.
.	.	[2G#X/ [2B	.	.	.	.
8G/L	.	.	.	.	.	.
8F/J)	.	.	.	.	.	.
=9	=9	=9	=9	=9	=9	=9
([2.E/	2.AA\	4G#/] 4B]	.	2.r	.	.
.	.	[2A/ [2c	]	.	.	.
=10	=10	=10	=10	=10	=10	=10
2E/]	2.AA\	4A/] 4c]	.	4r	.	.
!	!	!	!LO:DY:rj	!	!	!
.	.	[2A/ [2c	pp	4r	.	.
!	!	!	!	!	!	!LO:DY:a:rj
4G/)	.	.	.	4e/	Na	p
=11	=11	=11	=11	=11	=11	=11
(2F/	2.AA\	4A/] 4c]	.	2f/	wiej-	.
.	.	[2G#X/ [2d	.	.	.	.
8E/L	.	.	.	4g#X/	-skie	.
8D/J	.	.	.	.	.	.
=12	=12	=12	=12	=12	=12	=12
2E/	2.AA\	4G#/] 4d]	.	4b/	ga-	.
.	.	[2A/ [2c	.	4a/	-je,	.
4G/)	.	.	.	4e/	na	.
=13	=13	=13	=13	=13	=13	=13
(2F/	2.AA\	4A/] 4c]	.	4f/	kwie-	.
.	.	[2A/ [2d	.	4a/	.	.
8E/L	.	.	.	4b/	-tne	.
8D/J	.	.	.	.	.	.
=14	=14	=14	=14	=14	=14	=14
2E/	2.AA\	4A/] 4d]	.	4dd\	sa-	.
.	.	[2A/ [2c	.	4a/	-dy,	.
8G/L	.	.	.	4b/	Na	.
8F/J)	.	.	.	.	.	.
!!LO:LB:g=original
=15	=15	=15	=15	=15	=15	=15
!	!	!	!	!	!	!LO:HP:a
(2E/	2.AA\	4A/] 4c]	.	(4cc\	po-	<
.	.	[2A/ [2c	.	[2ee\	.	.
8F/L	.	.	.	.	.	.
8C/J	.	.	.	.	.	.
=16	=16	=16	=16	=16	=16	=16
2E/	2.AA\	4A/] 4c]	.	4ee\]	.	.
.	.	[2A/ [2c	.	4ff\)	.	[
8G/L	.	.	.	4cc\	-la	.
8F/J)	.	.	.	.	.	.
=17	=17	=17	=17	=17	=17	=17
!	!	!	!	!	!	!LO:HP:a
(2E/	2.AA\	4A/] 4c]	.	2.ee\	hen,	>
.	.	[2A/ [2c	.	.	.	.
8F/L	.	.	.	.	.	.
8C/J	.	.	.	.	.	.
=18	=18	=18	=18	=18	=18	=18
*	*	*^	*	*	*	*
!	!	!LO:TX:b:i:t=rit.	!	!	!	!	!
2.E/)	2.AA\	4A/] 4c]	4ryy	.	4ee\	.	.
.	.	[>(>4e/	(<2A\	.	4r	.	]
!	!	!	!	!	!LO:TX:a:i:t=poco piu lento	!	!
.	.	4e/_< 4a	.	.	[4ee\	I-	.
*v	*v	*	*	*	*	*	*
=19	=19	=19	=19	=19	=19	=19
!	!LO:TX:b:i:t=poco piu lento	!	!	!	!	!
(>2.BB/	4a/)	8e\L]	.	4ee\]	.	.
.	.	8A\	.	.	.	.
.	(2a/	8d#X\	.	4dd#X\	-dzie	.
.	.	8B\	.	.	.	.
.	.	8f#X\	.	4b\	no-	.
.	.	8B\J	.	.	.	.
=20	=20	=20	=20	=20	=20	=20
2EE/) 2E	2g#X/)	8dn\L	.	2ddn\	-ca-	.
.	.	8B\	.	.	.	.
.	.	8d\	.	.	.	.
.	.	8B\	.	.	.	.
4AAA/ 4AA	(4gn/	8c#X\	.	4cc#X\	-mi	.
.	.	8A\J)	.	.	.	.
=21	=21	=21	=21	=21	=21	=21
[2.DD/ [2.D	2.f#X/)	(8cn\L	.	4ccn\	cień	.
.	.	8A\	.	.	.	.
.	.	8c\	.	4b\	je-	.
.	.	8A\	.	.	.	.
.	.	8c\	.	4a/	-go	.
.	.	8A\J)	.	.	.	.
!!LO:LB:g=original
=22	=22	=22	=22	=22	=22	=22
!	!	!	!LO:HP:a	!	!	!LO:HP:a
2DD/] 2D]	2.fn/	(8cn\L	<	(4cc\	bla-	<
.	.	8A\	.	.	.	.
.	.	8c\	.	4b\)	.	.
.	.	8A\	.	.	.	.
((4DD#X/ 4D#X	.	8c\	.	4f/	-dy,	.
.	.	8A\J)	.	.	.	.
=23	=23	=23	=23	=23	=23	=23
[2.EE/)) [2.E	(4e/	(8c\L	[	2.a/	Ci-	[[
.	.	8A\	.	.	.	.
.	4g/	8c\	.	.	.	.
.	.	8A\	.	.	.	.
.	4f/	8c\	.	.	.	.
.	.	8A\J	.	.	.	.
=24	=24	=24	=24	=24	=24	=24
2EE/] 2E]	2e/)	8c\L	.	2e/	-chy	.
.	.	8A\	.	.	.	.
.	.	8G#X\	.	.	.	.
.	.	8B\	.	.	.	.
((4DD/ 4D	(4f/	8d\	.	4f/	jak	.
.	.	8A\J	.	.	.	.
*	*v	*v	*	*	*	*
=25	=25	=25	=25	=25	=25
!	!LO:TX:a:i:t=Tempo I.	!	!LO:TX:a:i:t=Tempo I.	!	!LO:HP:a
[2.AA/)) [2.E	4c/)) 4e	.	[2.a/	sen.	>]
.	(8A/L	.	.	.	.
.	8B/	.	.	.	.
.	8c/	.	.	.	.
.	8e/J	.	.	.	.
=26	=26	=26	=26	=26	=26
4AA/] 4E]	4a/)	.	4a/]	.	.
4r	(>8A/L	.	4r	.	.
.	8B/	.	.	.	.
4r	8c/	.	4r	.	.
.	8e/J	.	.	.	.
=27	=27	=27	=27	=27	=27
*	*^	*	*	*	*
!	!	!	!	!	!	!LO:DY:a
((2.GG/ 2.D	(2.f/)	(8A\L	.	4a/	Słu-	p
.	.	8c\	.	.	.	.
.	.	8A\	.	4cc\	-cha	.
.	.	8c\	.	.	.	.
.	.	8B\	.	4b\	jak	.
.	.	8G\J	.	.	.	.
=28	=28	=28	=28	=28	=28	=28
2.CC/)) 2.C	[2.e/)	8c\L	.	4a/	szu-	.
.	.	8G\	.	.	.	.
.	.	8c\	.	4g/	-mią	.
.	.	8G\	.	.	.	.
.	.	8c\	.	4g/	nad	.
.	.	8G\J)	.	.	.	.
!!LO:PB:g=original
=29	=29	=29	=29	=29	=29	=29
!	!	!	!	!	!	!LO:HP:a
2AA/ 2E	2e/]	8c\L	.	(4cc\	rze-	<
.	.	8A\	<	.	.	.
.	.	8c\	.	4ee\)	.	.
.	.	8A\	.	.	.	.
4DD/ 4D	(4f#X/	8c\	.	4a/	-ką	.
.	.	8A\J	.	.	.	.
=30	=30	=30	=30	=30	=30	=30
((2.GG/ 2.D	4a/	8fn\L	.	4dd\	la-	.
.	.	8B\	.	.	.	.
.	4g/	8f\	.	4b\	-sy	.
.	.	8B\	.	.	.	.
.	4b/	8f\	.	4g/	o-	[[
.	.	8d\J	[	.	.	.
*	*v	*v	*	*	*	*
=31	=31	=31	=31	=31	=31
2.AA/)) 2.F	8f/) 8cc	.	([2.cc\	-wi-	.
.	8r	.	.	.	.
.	(<8c/L	p	.	.	.
.	8e/	.	.	.	.
.	8f/	.	.	.	.
.	8a/J	.	.	.	.
=32	=32	=32	=32	=32	=32
2.GG/ 2.C	8b-X/)	.	4cc\]	.	.
.	8r	.	.	.	.
.	(8B-X/L	.	4a/)	.	.
.	8c/	.	.	.	.
.	8e/	.	4b-X/	-te	.
.	8g/J	.	.	.	.
=33	=33	=33	=33	=33	=33
[2.FF/ [2.C	8a/)	.	[2.a/	w_mgły;	.
.	8r	<	.	.	.
!	!LO:TX:b:i:t=string.	!	!	!	!
.	(8F/L	.	.	.	.
.	8G/	.	.	.	.
.	8A/	.	.	.	.
.	8c/J	.	.	.	.
=34	=34	=34	=34	=34	=34
2FF/] 2C]	8f/)	.	4a/]	.	.
.	8r	.	.	.	.
.	(8c/L	.	4r	.	.
.	8e/	.	.	.	.
4r	8f/	.	4r	.	.
.	8a/J	[	.	.	.
=35	=35	=35	=35	=35	=35
!	!	!	!LO:TX:a:i:t=Piu vivo	!	!
4C\ 4G	8d/) 8b-X	.	8dd\L	Jak	.
.	8r	.	8ff\J	.	.
4C\ 4G	4d/ 4b-	.	4ee\	brzę-	.
4C\ 4G	4d/ 4b-	.	4b-X\	-czą	.
!!LO:LB:g=original
=36	=36	=36	=36	=36	=36
*	*^	*	*	*	*
4FF/ 4C	(4b-X/	(8e\L	.	4dd\	skrzy-	.
.	.	8g\J	.	.	.	.
4FF/ 4C	4a/)	4c\)	.	4cc\	-pce,	.
4FF/ 4C	4a/	4f\	.	4r	.	.
*	*v	*v	*	*	*	*
=37	=37	=37	=37	=37	=37
4C\ 4G	4d/ 4b-X	.	8b-X\L	jak	.
.	.	.	8dd\J	.	.
4C\ 4G	4d/ 4b-	.	4cc\	hu-	.
4C\ 4G	4d/ 4b-	.	4g/	-czą	.
=38	=38	=38	=38	=38	=38
*	*^	*	*	*	*
4FF/ 4C	(4b-X/	8e\L	.	4b-X\	ba-	.
.	.	8g\J	.	.	.	.
!	!	!	!	!	!	!LO:HP:b
4FF/ 4C	4a/)	4c\	.	4a/	-sy,	<
4FF/ 4C	4a/	4f\	.	4cc\	Z_o-	[[
=39	=39	=39	=39	=39	=39	=39
4DD/ 4D	4cc/	4e\	.	([2.ee\	-dle-	.
4DD/ 4D	[2a/	(8e\L	.	.	.	.
.	.	8f#X\	.	.	.	.
4DD/ 4D	.	8c\	<	.	.	.
.	.	8e\J	.	.	.	.
=40	=40	=40	=40	=40	=40	=40
4DD/ 4D	2a/]	8.f#X\L)	.	4ee\]	.	.
.	.	(<16c\Jk	.	.	.	.
4DD/ 4D	.	4e\)	.	4a/)	.	.
4DD/ 4D	4a'/	4f#\	.	4cc\	-głej	.
=41	=41	=41	=41	=41	=41	=41
4DD/ 4D	4cc'/	4e\	.	[2.ee\	wsi	.
4DD/ 4D	[2a/	(8e\L	.	.	.	.
.	.	8f#X\	.	.	.	.
4DD/ 4D	.	8c\	.	.	.	.
.	.	8e\J	.	.	.	.
=42	=42	=42	=42	=42	=42	=42
4DD/ 4D	2a/]	8f#X\L)	<	4ee\]	.	.
.	.	(8c\	.	.	.	.
4DD/ 4D	.	8e\	.	4r	.	.
.	.	8f#\	.	.	.	.
4DD/ 4D	(4a/	8c\	.	4cc\	z_o	.
.	.	8d\J	[[	.	.	.
!!LO:LB:g=original
=43	=43	=43	=43	=43	=43	=43
4GG/	4e/ 4g/))	4ryy	f	([2.gg\	dle-	.
4GG/ 4E	[2g/	(8c\L	.	.	.	.
.	.	8e\	.	.	.	.
4GG/ 4E	.	8A\	.	.	.	.
.	.	8c\J	.	.	.	.
=44	=44	=44	=44	=44	=44	=44
4GG/ 4E	2g/]	8.e\L)	.	4gg\]	.	.
.	.	(16A\Jk	.	.	.	.
4GG/ 4E	.	4c\)	.	4a/)	.	.
4GG/ 4D	(4f/	(8A\L	.	4ff\	-głej	.
.	.	8B\J	.	.	.	.
=45	=45	=45	=45	=45	=45	=45
4CC/ 4GG	4c/) 4e)	4ryy	.	[2.ee\	wsi.	.
[2CC/ [2GG	(8ee/L	[2g\	ff	.	.	.
.	8gg/	.	.	.	.	.
.	8ff#X/	.	.	.	.	.
.	8dd/J	.	.	.	.	.
=46	=46	=46	=46	=46	=46	=46
4CC/] 4GG]	8.ee/L)	4g\]	.	4ee\]	.	.
.	(16a/Jk	.	.	.	.	.
4CC/ 4GG	4g\ 4ee\)	2ryy	.	4r	.	.
4CC/ 4GG	[4f#X\ [4dd\	.	.	4r	.	.
=47	=47	=47	=47	=47	=47	=47
4CC/ 4GG	4dd/]	4f#\]	.	2.r	.	.
[2CC/ [2GG	(8b/L	4fn\	.	.	.	.
.	8dd/)	.	.	.	.	.
.	(8b/	4d\	.	.	.	.
.	8f/J)	.	.	.	.	.
=48	=48	=48	=48	=48	=48	=48
4CC/] 4GG]	8.a/L	4c\	.	2.r	.	.
.	(16d/Jk	.	.	.	.	.
4CC/ 4GG	4c/ 4a)	2ryy	.	.	.	.
4CC/ 4GG	[4e/ [4g/	.	.	.	.	.
=49	=49	=49	=49	=49	=49	=49
4CC/ 4GG	4e/] 4g]	4ryy	.	2.r	.	.
[2CC/ [2GG	(8e/L	[2c\	.	.	.	.
.	8g/	.	.	.	.	.
.	8f#X/	.	.	.	.	.
.	8d/J)	.	.	.	.	.
!!LO:LB:g=original
=50	=50	=50	=50	=50	=50	=50
!	!	!	!LO:HP:t=diminuendo	!	!	!
4CC/] 4GG]	4c/] 4a	4ryy	>	2.r	.	.
[2CC/ [2GG	(8e/L	[2c\	.	.	.	.
.	8g/	.	.	.	.	.
.	8f#X/	.	.	.	.	.
.	8d/J	.	.	.	.	.
=51	=51	=51	=51	=51	=51	=51
4CC/] 4GG]	4c/] 4g)	4ryy	.	2.r	.	.
[2CC/ [2GG	(8e/L	[2G\	.	.	.	.
.	8g/	.	.	.	.	.
.	8f#X/	.	.	.	.	.
.	8d/J	.	.	.	.	.
=52	=52	=52	=52	=52	=52	=52
4CC/] 4GG]	4fn/)	4G\]	.	2.r	.	.
[2CC/ [2GG	(8d/L	2G\	.	.	.	.
.	8f/	.	.	.	.	.
.	8e/	.	.	.	.	.
.	8c/J	.	.	.	.	.
*	*v	*v	*	*	*	*
=53	=53	=53	=53	=53	=53
4CC/] 4GG]	4G/) 4e	.	2.r	.	.
!	!LO:TX:b:i:t=leggiero	!	!	!	!
4r	(>8c/L	.	.	.	.
.	8e/)	.	.	.	.
4GG#X'/	8d'>/	.	.	.	.
.	8B-X'>/J	.	.	.	.
=54	=54	=54	=54	=54	=54
4AA'/	4A/	.	2.r	.	.
4r	(>8A/L	.	.	.	.
.	8c/)	.	.	.	.
4DD/	8B-X'>/	.	.	.	.
.	8F'>/J	.	.	.	.
=55	=55	=55	=55	=55	=55
4FF\	4A/	.	2.r	.	.
!	!LO:TX:a:t=poco rit.	!	!	!	!
4r	(>8F</L	.	.	.	.
.	8A</)	.	.	.	.
4r	8G<'>/	.	.	.	.
.	8E<'>/J	.	.	.	.
=56	=56	=56	=56	=56	=56
4r	4D</	.	2.r	.	.
(<8E\L	4r<	.	.	.	.
8G\)	.	.	.	.	.
8F\	4r<	.	.	.	.
8D\J	.	.	.	.	.
!!LO:PB:g=original
=57	=57	=57	=57	=57	=57
*^	*	*	*	*	*
(2.E/	2.AA\	4r	p	2.r	.	.
.	.	[2A^/ [2e	.	.	.	.
=58	=58	=58	=58	=58	=58	=58
!	!	!	!	!LO:TX:a:t=Tempo I.	!	!
2E/	2.AA\	4A/] 4e]	.	4r	.	.
.	.	[2A/ [2e	.	4r	.	.
!	!	!	!	!	!	!LO:DY:a
4G/)	.	.	.	[4e/	Słu-	p
=59	=59	=59	=59	=59	=59	=59
(2F/	2.AA\	4A/] 4e]	.	4e/]	.	.
.	.	[2G#X/ [2d	.	4f/	-cha	.
8E/L	.	.	.	4g#X/	jak	.
8D/J	.	.	.	.	.	.
=60	=60	=60	=60	=60	=60	=60
2E/	2.AA\	4G#/] 4d]	.	(4b/	szep-	.
.	.	[2A/ [2c	.	4a/)	.	.
4G/)	.	.	.	4e/	-cą	.
=61	=61	=61	=61	=61	=61	=61
(2F/	2.AA\	4A/] 4c]	<	4f/	drżą-	.
!	!	!	!	!	!	!LO:HP:a
.	.	[2A/ [2d	.	4a/	-ce	<
8E/L	.	.	.	4b\	o-	.
8D/J	.	.	.	.	.	.
=62	=62	=62	=62	=62	=62	=62
2E/	2.AA\	4A/] 4d]	.	(4dd\	-si-	.
.	.	[2A/ [2c	[	4a/)	.	.
8G/L	.	.	.	4b\	-ny	[[
8F/J)	.	.	.	.	.	.
!!LO:LB:g=original
=63	=63	=63	=63	=63	=63	=63
(2E/	2.AA\	4A/] 4c]	.	(4cc\	Mal-	.
.	.	[2A/ [2c	.	[2ee\)	.	.
8F/L	.	.	.	.	.	.
8C/J	.	.	.	.	.	.
=64	=64	=64	=64	=64	=64	=64
2E/	2.AA\	4A/] 4c]	.	4ee\]	.	.
.	.	[2A/ [2c	.	4ff\	-wy	.
8G/L	.	.	.	4cc\	i	.
8F/J)	.	.	.	.	.	.
=65	=65	=65	=65	=65	=65	=65
!	!	!	!	!	!	!LO:HP:a
(2E/	2.AA\	4A/] 4c]	.	[2.ee\	bez;	>
.	.	[2A/ [2c	.	.	.	.
8F/L	.	.	.	.	.	.
8D/J	.	.	.	.	.	.
=66	=66	=66	=66	=66	=66	=66
*	*	*^	*	*	*	*
!	!	!LO:TX:b:i:t=riten.	!	!	!	!	!
2.E/)	2.AA\	4A/] 4c]	4ryy	.	4ee\]	.	]
.	.	4ryy	2A\ [<2e	.	4r	.	.
!	!	!	!	!	!LO:TX:a:i:t=poco piu lento ed espress.	!	!LO:DY:a:rj
.	.	4a/	.	.	[4ee\	I	p
*v	*v	*	*	*	*	*	*
=67	=67	=67	=67	=67	=67	=67
(2.BB/	4a/	8e\L]	p	4ee\]	.	.
.	.	8A\	.	.	.	.
.	(2a/	8d#X\	.	4dd#X\	roz-	.
.	.	8B\	.	.	.	.
.	.	8f#X\	.	4b\	-ła-	.
.	.	8B\J	.	.	.	.
=68	=68	=68	=68	=68	=68	=68
2EE/) 2E	2g#X/)	8dn\L	.	2ddn\	-ka-	.
.	.	8B\	.	.	.	.
.	.	8d\	.	.	.	.
.	.	8B\	.	.	.	.
((4AAA/ 4AA	(4gn/	8c#X\	.	4cc#X\	-nej	.
.	.	8A\J	.	.	.	.
!!LO:LB:g=original
=69	=69	=69	=69	=69	=69	=69
2DD/)) 2D	[2.f#X/)	(8cn\L	.	4ccn\	słu-	.
.	.	8A\	.	.	.	.
.	.	8c\	.	4a/	-cha	.
.	.	8A\	.	.	.	.
((4DD-X/ 4D-X	.	8B-X\	.	4b-X\	dziew-	.
.	.	8A\J	.	.	.	.
=70	=70	=70	=70	=70	=70	=70
2.CC/)) 2.C	4f#/]	8B-X\L	.	4dd\	-czy-	.
.	.	8A\	.	.	.	.
.	(4g/	8B-\	.	4cc\	-ny,	.
.	.	8e\	.	.	.	.
.	4g#X/	8d\	.	4b-X\	Jej	.
.	.	8B-\J)	.	.	.	.
=71	=71	=71	=71	=71	=71	=71
!	!LO:TX:b:i:t=poco string.	!	!	!	!	!
[2.FF/ [2.C	[2.a/)	8A\L	.	[2.a/	skarg,	.
.	.	8c\	.	.	.	.
.	.	8A\	.	.	.	.
.	.	8c\	.	.	.	.
.	.	8d\	.	.	.	.
.	.	8f\J	.	.	.	.
=72	=72	=72	=72	=72	=72	=72
2FF/] 2C]	2.a/]	8c\L	.	2a/]	.	.
.	.	8d\	.	.	.	.
.	.	8c\	.	.	.	.
.	.	8d\	.	.	.	.
4r	.	8e\	.	4a/	jej	.
.	.	8f\J	.	.	.	.
=73	=73	=73	=73	=73	=73	=73
[2.CC#X/ [2.C#X	[4a/	(8e\L	.	[2.ee\	łez.	.
.	.	8g\	<	.	.	.
.	8a/]	8e\	.	.	.	.
.	8r	8g\	.	.	.	.
.	4r	8a\	.	.	.	.
.	.	8b-X\J)	.	.	.	.
!!LO:LB:g=original
=74	=74	=74	=74	=74	=74	=74
2CC#/] 2C#]	[2ee/	(8g\L	.	4ee\]	.	.
.	.	8b-X\	.	.	.	.
.	.	8g\	.	4r	.	.
.	.	8b-\	.	.	.	.
(4d\	8ee/]	8ee\	.	4r	.	.
.	8r	8ff\J)	[	.	.	.
*	*v	*v	*	*	*	*
=75	=75	=75	=75	=75	=75
8c#X\)	8g\ 8b-X 8ee 8gg	.	2.r	.	.
8r	8r	.	.	.	.
!	!LO:TX:a:i:t=poco piu mosso	!	!	!	!
4r	(8g/L	pp	.	.	.
.	8b-X/	.	.	.	.
4r	8g/	.	.	.	.
.	8b-/J	.	.	.	.
=76	=76	=76	=76	=76	=76
!	!	!LO:HP:b=2	!	!	!
(2f\	8g/L	>	2.r	.	.
.	8b-X/	.	.	.	.
.	8g/	.	.	.	.
.	8b-/	.	.	.	.
4e\	8g/	.	.	.	.
.	8b-/J)	.	.	.	.
=77	=77	=77	=77	=77	=77
[2.A\)	(8g/L	.	2.r	.	.
.	8a/	]	.	.	.
.	8g/	.	.	.	.
.	8a/	.	.	.	.
.	8g/	.	.	.	.
.	8a/J	.	.	.	.
=78	=78	=78	=78	=78	=78
4A\]	8g/L	.	2.r	.	.
.	8a/	.	.	.	.
4ryy	8g/	.	.	.	.
.	8a/	.	.	.	.
(4A\	8g/	.	.	.	.
.	8a/J	.	.	.	.
=79	=79	=79	=79	=79	=79
!	!	!	!	!	!LO:DY:a
8d\)	8f#X/) 8a	.	[2.a/	W_wo-	p
8r	8r	.	.	.	.
4r	(8ff#X\L	ppp	.	.	.
.	8aa\	.	.	.	.
4r	8ff#\	.	.	.	.
.	8aa\J)	.	.	.	.
!!LO:PB:g=original
=80	=80	=80	=80	=80	=80
!LO:TX:b:i:t=poco marc.	!	!	!	!	!
([2.A\	(8ff#X\L	.	4a/]	.	.
.	8aa\	.	.	.	.
.	8ff#\	.	4dd\	-dnych	.
.	8aa\	.	.	.	.
.	8ff#\	.	4cc#X\	wi-	.
.	8aa\J)	.	.	.	.
=81	=81	=81	=81	=81	=81
4A\]	(8ff#X\L	.	4ee\	-kli-	.
.	8aa\	.	.	.	.
4d\	8ff#\	.	4dd\	-nach	.
.	8aa\	.	.	.	.
4c#X\	8ff#\	.	4r	.	.
.	8aa\J	.	.	.	.
=82	=82	=82	=82	=82	=82
4e\	8ff#X\L	.	2.r	.	.
.	8aa\	.	.	.	.
4d\)	8ff#\	.	.	.	.
.	8aa\	.	.	.	.
4r	8ff#\	.	.	.	.
.	8aa\J)	.	.	.	.
=83	=83	=83	=83	=83	=83
!	!	!	!	!	!LO:HP:a
2.r	(8ffn\L	.	[2.a/	w_bla-	<
.	8aa\	.	.	.	.
.	8ff\	.	.	.	.
.	8aa\	.	.	.	.
.	8ff\	.	.	.	.
.	8aa\J	.	.	.	.
*clefG2	*	*	*	*	*
=84	=84	=84	=84	=84	=84
!	!	!LO:HP:b=2	!	!	!
(2.c/	8ffn\L	<	4a/]	.	.
.	8aa\	.	.	.	.
.	8ff\	.	4a/	-sku	.
.	8aa\	.	.	.	.
.	8ff\	.	4b-X/	księ-	[[
.	8aa\J	.	.	.	.
=85	=85	=85	=85	=85	=85
4c/	8ff\L	.	2.cc\	-ży-	.
.	8aa\)	.	.	.	.
4f/	(8a\	.	.	.	.
.	8cc\	.	.	.	.
4en/)	8b-X\	.	.	.	.
.	8cc\J)	[[	.	.	.
!!LO:LB:g=original
=86	=86	=86	=86	=86	=86
4g/	(8a\L	.	4cc\	-ca	.
.	8cc\	.	.	.	.
4f/	8a\	.	4r	.	.
.	8cc\	.	.	.	.
!	!	!	!LO:TX:a:i:t=dolce	!	!
4r	8a\	.	4cc\	W_pół-	.
.	8cc\J)	.	.	.	.
=87	=87	=87	=87	=87	=87
2.r	(8a\L	.	([2.ff\	-lo-	.
.	8cc\	.	.	.	.
.	8a\	.	.	.	.
.	8cc\	.	.	.	.
.	8a\	.	.	.	.
.	8cc\J	.	.	.	.
=88	=88	=88	=88	=88	=88
(2.f/	8a-X\L	.	4ff\]	.	.
.	8cc\	.	.	.	.
.	8a-\	.	4cc\)	.	.
.	8cc\	.	.	.	.
.	8a-\	.	4dd\	-cny	.
.	8cc\J)	.	.	.	.
=89	=89	=89	=89	=89	=89
4e-X/)	(8a-X\L	.	[2.ee-X\	chłód	.
.	8cc\	.	.	.	.
4r	8a-\	<	.	.	.
.	8cc\	.	.	.	.
*clefF4	*	*	*	*	*
([4E-X\	8a-\	.	.	.	.
.	8cc\J	.	.	.	.
=90	=90	=90	=90	=90	=90
4E-\]	8a-X/L	.	4ee-X\]	.	.
.	8cc/	.	.	.	.
4A-X\	8c/	.	4r	.	.
.	8e-X/	.	.	.	.
4G\	8d-X/	.	4ee-\	Ru-	.
.	8e-/J)	[[	.	.	.
=91	=91	=91	=91	=91	=91
4B-X\	(8c/L	.	2ee-X\	-sał-	.
.	8e-X/	>	.	.	.
4A-X\)	8c/	.	.	.	.
.	8e-/	.	.	.	.
4r	8c/	.	4ee-\	-ka	.
.	8e-/J)	.	.	.	.
!!LO:LB:g=original
=92	=92	=92	=92	=92	=92
(<2AA-X/	(8c/L	.	2ee-X\	pa-	.
.	8e-X/	.	.	.	.
.	8c/	.	.	.	.
.	8e-/	.	.	.	.
4GG-X/	8B-X/	.	4ee-\	-trzy	.
.	8e-/J)	]]	.	.	.
=93	=93	=93	=93	=93	=93
2.FF/	(8An/L	.	2.ee-X\	nań	.
.	8e-X/	.	.	.	.
.	8A/	.	.	.	.
.	8e-/	.	.	.	.
.	8A/	.	.	.	.
.	8e-/J	.	.	.	.
=94	=94	=94	=94	=94	=94
2.EE/)	8G#X/L	.	(4g#X/	bla-	.
.	8d/	.	.	.	.
.	8G#/	.	4bn\)	.	.
.	8d/	.	.	.	.
.	8G#/	.	4dd\	-do-	.
.	8d/J)	.	.	.	.
=95	=95	=95	=95	=95	=95
2.E\	(8A/L	.	2.cc#X\	-li-	.
.	8c#X/	.	.	.	.
.	8A/	.	.	.	.
.	8c#/	.	.	.	.
.	8G#X/	.	.	.	.
.	8c#/J	.	.	.	.
=96	=96	=96	=96	=96	=96
2D#X\	8F#X/L	<	4f#X/	-ca,	.
.	8cn/	.	.	.	.
.	8G#X/	.	4r	.	.
.	8c/	.	.	.	.
[4DD#X/	8A/	.	4ccn\	Z_prze	.
.	8c/J)	.	.	.	.
!!LO:LB:g=original
=97	=97	=97	=97	=97	=97
!	!	!	!	!	!LO:HP:a
2.DD#/_	(8A/L	.	([2.b\	past-	<
.	8B/	.	.	.	.
.	8A/	.	.	.	.
.	8B/	.	.	.	.
.	8A/	.	.	.	.
.	8B/J	[	.	.	.
=98	=98	=98	=98	=98	=98
2.DD#/_	8A/L	.	4b\]	.	.
.	8B/	.	.	.	.
.	8A/	.	4a/)	.	[
.	8B/	.	.	.	.
.	8A/	.	4f/	-nych	.
.	8B/J)	.	.	.	.
=99	=99	=99	=99	=99	=99
!	!	!	!	!	!LO:HP:a
2.DD#/]	(8A/L	>	[2.b\	wód.	>
.	8B/	.	.	.	.
.	8A/	.	.	.	.
.	8B/	.	.	.	.
.	8A/	.	.	.	.
.	8B/J	]]	.	.	.
=100	=100	=100	=100	=100	=100
(2GG/	8A/L	.	4b\]	.	]
.	8B/	.	.	.	.
.	8A/	.	4r	.	.
.	8B/	.	.	.	.
4FF/	8A/	.	4r	.	.
.	[>8B/J	.	.	.	.
=101	=101	=101	=101	=101	=101
4EE/)	4G#X/) 4B]	.	2.r	.	.
4r	4r	.	.	.	.
(>[>4D^\	4r	.	.	.	.
=102	=102	=102	=102	=102	=102
4D\]	2.E^/ 2.e	.	2.r	.	.
4C/	.	.	.	.	.
4BB/	.	.	.	.	.
!!LO:PB:g=original
=103	=103	=103	=103	=103	=103
*	*^	*	*	*	*
*	*	*	*^	*	*	*
!	!	!	!	!	!LO:TX:a:t=Tempo I.	!	!
2.AA/) 2.E	4r	4ryy	.	p	2.r	.	.
.	(8e/L	(4c\	<	.	.	.	.
.	8d#X/J	.	.	.	.	.	.
!	!	!	!	!LO:HP:a:t=poco a poco cresc.	!	!	!
.	4f/) 4b	4B\)	[	<	.	.	.
=104	=104	=104	=104	=104	=104	=104	=104
2.AAA/ 2.EE	4r	4ryy	.	.	2.r	.	.
.	(8f/L	(4B\	<	.	.	.	.
.	8d#X/J	.	.	.	.	.	.
.	4e/) 4a	4A\)	[	.	.	.	.
=105	=105	=105	=105	=105	=105	=105	=105
2.AA/ 2.E	4r	4ryy	.	.	2.r	.	.
.	(8e/L	(4c\	<	.	.	.	.
.	8d#X/J	.	.	.	.	.	.
.	4f/) 4b	4B\)	[	.	.	.	.
*	*	*	*v	*v	*	*	*
=106	=106	=106	=106	=106	=106	=106
2.AAA/ 2.EE	4r	4ryy	.	4r	.	.
.	(8f/L	(4B\	<	4r	.	.
.	8d#X/J	.	.	.	.	.
.	4e/) 4a	4A\)	[	[4e^>/	Słu-	.
=107	=107	=107	=107	=107	=107	=107
!	!	!	!	!	!	!LO:DY:a
2.AA/ 2.E	4r	4ryy	.	4e/]	.	p
.	(8f/L	(4c\	<	4f/	-cha	.
.	8d#X/J	.	.	.	.	.
.	4f/) 4b	4B\)	[	4g#X/	ję-	.
=108	=108	=108	=108	=108	=108	=108
2.AAA/ 2.EE	4r	4ryy	.	(4b/	-czą-	.
.	(8f/L	(4c\	<	4a/)	.	.
.	8d#X/J	.	.	.	.	.
.	4e/) 4a	4A\)	[	4e/	-cych	.
=109	=109	=109	=109	=109	=109	=109
2.AA/ 2.E	4r	4ryy	.	4f/	dzwo-	.
.	(8e/L	(4c\	<	4a/	-nów	.
.	8d#X/J	.	.	.	.	.
.	4f/) 4b	4B\)	[	4b/	po-	.
!!LO:LB:g=original
=110	=110	=110	=110	=110	=110	=110
2.AAA/ 2.EE	4r	4ryy	.	4dd\	-grze-	.
.	(8f/L	(4c\	<	4a/	-bnych,	.
.	8d#X/J	.	.	.	.	.
.	4e/) 4b	4B\)	[	4b\	Ich	.
=111	=111	=111	=111	=111	=111	=111
!	!	!	!	!	!	!LO:HP:a
2.AA/ 2.E	4r	4ryy	.	((4cc\	wiel-	<
.	(8e/L	(4c\	<	[2ee\)	.	.
.	8d#X/J	.	.	.	.	.
.	4f/) 4b	4B\)	[	.	.	.
=112	=112	=112	=112	=112	=112	=112
2.AAA/ 2.EE	4r	4ryy	.	4ee\]	.	.
.	(8f/L	(4B\	<	4ff\)	.	.
.	8d#X/J	.	.	.	.	.
.	4e/) 4a	4A\)	[	4cc\	-kich	[[
=113	=113	=113	=113	=113	=113	=113
!	!	!	!	!	!	!LO:HP:a
2.AA/ 2.E	4r	4ryy	.	[2.ee\	łkań,	>
.	(8e/L	(4c\	<	.	.	.
.	8d#X/J	.	.	.	.	.
.	4f/) 4b	4B\)	[	.	.	.
=114	=114	=114	=114	=114	=114	=114
*^	*	*	*	*	*	*
(2EE/	2.AAA\	4r	4ryy	.	4ee\]	.	]
.	.	(8f/L	(4B\	.	4r	.	.
.	.	8d#X/J	.	.	.	.	.
!	!	!LO:TX:b:i:t=poco piu lento	!	!	!LO:TX:a:i:t=poco piu lento e espress.	!	!
4C/	.	[<4e/) [4a	4A\)	.	[4ee\	I	.
*v	*v	*	*	*	*	*	*
=115	=115	=115	=115	=115	=115	=115
2BB/)	4a/]	8A\L 8e]	.	4ee\]	.	.
.	.	8A\	.	.	.	.
.	(2a/	8d#X\	.	4dd#X\	roz-	.
.	.	8B\	.	.	.	.
((4BBB/ 4BB	.	8f#X\	.	4b\	-pły-	.
.	.	8B\J	.	.	.	.
=116	=116	=116	=116	=116	=116	=116
2EE/)) 2E	2g#X/)	8dn\L	.	2dd\	-nię-	.
.	.	8B\	.	.	.	.
.	.	8d\	.	.	.	.
.	.	8B\	.	.	.	.
((4AAA/ 4AA	(>4gn/	8c#X\	.	4cc#X\	-tych	.
.	.	8A\J	.	.	.	.
!!LO:LB:g=original
=117	=117	=117	=117	=117	=117	=117
2.DD/)) 2.D	2.f#X/	8cn\L	.	4ccn\	kę-	.
.	.	8A\	.	.	.	.
!	!	!	!	!	!	!LO:HP:a
.	.	8c\	<	4a/	-dyś	<
.	.	8A\	.	.	.	.
.	.	8B-X\	.	4b-X/	pod-	.
.	.	8c\J	.	.	.	.
=118	=118	=118	=118	=118	=118	=118
(2BBB-X/ 2BB-X	4fn/)	8d\L	.	(4dd\	-nie-	.
.	.	8F\	.	.	.	.
.	(4e/	8c\	.	4cc\)	.	[
.	.	8F\	.	.	.	.
4DD/)	4d/	8B-X\	[	4b-X\	-bnych	.
.	.	8F\J	.	.	.	.
=119	=119	=119	=119	=119	=119	=119
2.EE/	4c#X/)	8A\L	.	2.a/	Gwiazd	.
.	.	8F\	.	.	.	.
.	(4e/	8cn\	>	.	.	.
.	.	8A\	.	.	.	.
.	4f#X/	8cn\	.	.	.	.
.	.	8A\J	.	.	.	.
=120	=120	=120	=120	=120	=120	=120
!	!	!	!	!	!	!LO:HP:a
2.EE/ 2.E	2a/	8d\L	.	(4bn\	błę-	>
.	.	8B\	.	.	.	.
.	.	8d\	.	4dd\)	.	.
.	.	8B\	.	.	.	.
.	4g#X/	8e\	.	4cc#X\	-dnych	]]
.	.	8d\J	]	.	.	.
*	*v	*v	*	*	*	*
=121	=121	=121	=121	=121	=121
[2.AA/ [2.E	4c#X/) 4a	.	[2.ee\	drgań.	.
!	!LO:TX:b:i:t=poco piu mosso	!	!	!	!
.	(8A/L	.	.	.	.
.	8B/	.	.	.	.
.	8c#/	.	.	.	.
.	8e/J	.	.	.	.
=122	=122	=122	=122	=122	=122
4AA/] 4E]	4a/)	.	4ee\]	.	.
4r	(>8c#X/L	.	4r	.	.
.	8e/	.	.	.	.
4r	8a/	.	4r	.	.
.	8cc#X/J	.	.	.	.
!!LO:LB:g=original
=123	=123	=123	=123	=123	=123
*	*^	*	*	*	*
!	!	!	!LO:HP:t=cresc. poco a poco	!LO:TX:a:t=Tempo I.	!	!
(2.AAA/	4ee\)	4ryy	<	2.a/	Słu-	.
.	8f/L	[2A\	.	.	.	.
.	8e/J	.	.	.	.	.
.	[4a/	.	.	.	.	.
=124	=124	=124	=124	=124	=124	=124
2.AA/)	4a/]	4A\]	.	2a/	-cha	.
.	(8f/L	[2A\	.	.	.	.
.	8e/J	.	.	.	.	.
.	[4a/	.	.	4ff\	jak	.
=125	=125	=125	=125	=125	=125	=125
(2.AAA/	4a/])	4A\]	.	2.ee\	ser-	.
.	(8f/L	[2A\	.	.	.	.
.	8e/J	.	.	.	.	.
.	[4a/	.	.	.	.	.
=126	=126	=126	=126	=126	=126	=126
2.AA/)	4a/])	4A\]	.	2dd\	-ca	.
.	(8e/L	[2A\	.	.	.	.
.	8d/J	.	.	.	.	.
.	[4a/	.	.	4r	.	.
=127	=127	=127	=127	=127	=127	=127
(2.AAA/	4a/])	4A\]	.	[2.gg\	w_bo-	.
.	(8d/L	[2G\	.	.	.	.
.	8c#X/J	.	.	.	.	.
.	[4e/	.	.	.	.	.
=128	=128	=128	=128	=128	=128	=128
2.AA/)	4e/])	4G\]	.	4gg\]	.	.
.	(8d/L	[2G\	.	4ff\	-lu	.
.	8c#X/J	.	.	.	.	.
.	[4g/	.	.	4ee\	się	.
=129	=129	=129	=129	=129	=129	=129
((2.AAA/	4g/])	4G\]	.	2.ee\	kru-	.
.	8e/L	[2F\	.	.	.	.
.	8d/J	.	.	.	.	.
.	[4f/	.	.	.	.	.
!!LO:PB:g=original
=130	=130	=130	=130	=130	=130	=130
2.AAA-X/)) 2.AA-X	4f/]	4F\]	.	4dd\	-szą	.
.	(8c/L	[2F\	.	4r	.	.
.	8B-X/J	.	.	.	.	.
.	[4d/	.	.	4dd\	I	.
=131	=131	=131	=131	=131	=131	=131
[2.GGG/ [2.GG	4d/])	4F\]	.	([2.ff\	rwą	.
.	(8c/L	[2F\	.	.	.	.
.	8B-X/J	.	.	.	.	.
.	[4d/	.	.	.	.	.
=132	=132	=132	=132	=132	=132	=132
2GGG/] 2GG]	4d/])	4F\]	.	4ff\]	.	.
.	(8c/L	[2F\	.	4ee\)	.	.
.	8B-X/J	.	.	.	.	.
4GG#X/	4d/	.	.	4dd\	bez	.
=133	=133	=133	=133	=133	=133	=133
4AA/	4f/)	4F\] 4c	.	[2.cc\	sił	.
!	!LO:TX:a:i:t=con moto	!	!	!	!	!
4r	(8F/L	2ryy	.	.	.	.
.	8G/	.	.	.	.	.
4r	8A/	.	.	.	.	.
.	8c/J	.	.	.	.	.
*	*v	*v	*	*	*	*
=134	=134	=134	=134	=134	=134
2.r	4f/)	.	4cc\]	.	.
.	(8A/L	.	4r	.	.
.	8c/	.	.	.	.
.	8d/	.	4r	.	.
.	8f/J	.	.	.	.
=135	=135	=135	=135	=135	=135
2.r	8a/L)	.	2.r	.	.
.	8F/	.	.	.	.
.	8A/ 8c	.	.	.	.
.	8F/	.	.	.	.
.	8A/ 8c	.	.	.	.
.	8F/J	<	.	.	.
=136	=136	=136	=136	=136	=136
(<2.FF^/	8A/L 8c	.	2.r	.	.
.	8F/	.	.	.	.
.	8A/ 8c	.	.	.	.
.	8F/	.	.	.	.
.	8A/ 8d	.	.	.	.
.	8F/J	[[	.	.	.
!!LO:LB:g=original
=137	=137	=137	=137	=137	=137
*	*^	*	*	*	*
!	!LO:TX:a:i:t=ritenuto	!	!	!	!	!
2.CC/ 2.C	[2.e/	8A\L	.	2.r	.	.
.	.	8E\	.	.	.	.
.	.	8A\	.	.	.	.
.	.	8E\	<	.	.	.
.	.	8A\	.	.	.	.
.	.	8E\J	.	.	.	.
=138	=138	=138	=138	=138	=138	=138
2.BBB/ 2.BB	2.e/]	8d#X\L	>	2.r	.	.
.	.	8F#X\	.	.	.	.
.	.	8d#\	.	.	.	.
.	.	8F#\	.	.	.	.
.	.	8dn\	.	.	.	.
.	.	8G#X\J	]]	.	.	.
=139	=139	=139	=139	=139	=139	=139
!	!	!	!	!LO:TX:a:i:t=piu lento	!	!LO:DY:a
2AAA/) 2AA	2e/	8c\L	pp	[2.ee\	Słu-	p
.	.	8A\	.	.	.	.
.	.	8c\	.	.	.	.
.	.	8A\	.	.	.	.
(4C/	[4a/	8e\	.	.	.	.
.	.	8A\J	.	.	.	.
=140	=140	=140	=140	=140	=140	=140
2BB/)	(2.a/]	8e\L	.	4ee\]	.	.
.	.	8A\	.	.	.	.
.	.	8d#X\	.	4dd#X\	-cha	.
.	.	8B\	.	.	.	.
((4BBB/ 4BB	.	8f#X\	.	4b\	wszyst-	.
.	.	8B\J	.	.	.	.
=141	=141	=141	=141	=141	=141	=141
2.EE/)) 2.E	(2.g#X/)	8dn\L	.	2.ddn\	-kie-	.
.	.	8B\	.	.	.	.
.	.	8d\	.	.	.	.
.	.	8B\	.	.	.	.
.	.	8d\	.	.	.	.
.	.	8B\J	.	.	.	.
=142	=142	=142	=142	=142	=142	=142
2.AAA/ 2.AA	2.gn/)	8c#X\L	.	2cc#X\	-go	.
.	.	8A\	.	.	.	.
.	.	8c#\	.	.	.	.
.	.	8A\	.	.	.	.
.	.	8c#\	.	4a/	co	.
.	.	8A\J	.	.	.	.
!!LO:LB:g=original
=143	=143	=143	=143	=143	=143	=143
!	!	!	!	!	!	!LO:HP:a
[2.DD/ [2.D	2.f#X/	8cn\L	.	([2.ccn\	je-	<
.	.	8A\	<	.	.	.
.	.	8c\	.	.	.	.
.	.	8A\	.	.	.	.
.	.	8c\	.	.	.	.
.	.	8A\J	.	.	.	.
=144	=144	=144	=144	=144	=144	=144
2DD/] 2D]	2.fn/	8c\L	.	4cc\]	.	.
.	.	8A\	.	.	.	.
.	.	8c\	.	4b\)	.	.
.	.	8A\	.	.	.	.
((4DD#X/ 4D#X	.	8c\	.	4a/	-go	[
.	.	8A\J	[	.	.	.
=145	=145	=145	=145	=145	=145	=145
!	!	!	!	!LO:TX:a:i:t=espr.	!	!
[2.EE/)) [2.E	[2.e/	8c\L	.	2ee\	du-	.
!	!LO:TX:b:i:t=espr.	!	!	!	!	!
.	.	8A\	.	.	.	.
.	.	8c\	.	.	.	.
.	.	8A\	.	.	.	.
.	.	8c\	.	4cc\	-szą	.
.	.	8A\J	.	.	.	.
=146	=146	=146	=146	=146	=146	=146
2.EE/] 2.E]	4e/]	8c\L	.	4a/	by-	.
.	.	8A\	.	.	.	.
.	(4g/	8c\	.	4g/	-ło	.
.	.	8A\	.	.	.	.
.	4f/	8c\	.	4f/	gdy	.
.	.	8A\J	.	.	.	.
=147	=147	=147	=147	=147	=147	=147
!	!	!	!	!	!	!LO:HP:a
[2.EE/ [2.E	[2.e/)	8c\L	>	[2.e/	żył,	>
.	.	8A\	.	.	.	.
.	.	8c\	.	.	.	.
.	.	8A\	.	.	.	.
.	.	8c\	.	.	.	.
.	.	8A\J	.	.	.	.
=148	=148	=148	=148	=148	=148	=148
2EE/] 2E]	2e/]	8c\L	.	2e/]	.	.
.	.	8A\	]	.	.	.
!	!	!	!LO:HP:t=dim.	!	!	!
.	.	8G#X\	>	.	.	.
.	.	8B\	.	.	.	.
!	!	!	!	!	!	!LO:DY:a
((4DD/ 4D	4f/	8d\	.	4f/	gdy	] pp
.	.	8A\J	.	.	.	.
*	*v	*v	*	*	*	*
!!LO:LB:g=original
=149	=149	=149	=149	=149	=149
*^	*	*	*	*	*
!LO:TX:t=P:problem=brak zakończenia łuków	!	!	!	!	!	!
(2E/))	2.AA\	4c/ 4a	pp	[2.a/	żył.	.
.	.	[2A/ [2c	.	.	.	.
8F/L	.	.	.	.	.	.
8C/J	.	.	.	.	.	.
=150	=150	=150	=150	=150	=150	=150
2E/	2.AA\	4A/] 4c]	.	2a/]	.	.
.	.	[2A/ [2c	.	.	.	.
8G/L	.	.	.	4r	.	.
8F/J)	.	.	.	.	.	.
=151	=151	=151	=151	=151	=151	=151
!	!	!	!LO:HP:b=2	!	!	!
(2E/	2.AA\	4A/] 4c]	<	2.r	.	.
.	.	[2A/ [2c	.	.	.	.
8F/L	.	.	.	.	.	.
8C/J	.	.	.	.	.	.
=152	=152	=152	=152	=152	=152	=152
2E/	2.AA\	4A/] 4c]	.	2.r	.	.
.	.	[2A/ [2c	.	.	.	.
8G/L	.	.	.	.	.	.
8F/J)	.	.	[[	.	.	.
=153	=153	=153	=153	=153	=153	=153
[2.E/	[2.AA\	4A/] 4c]	.	2.r	.	.
.	.	(8c/L	pp	.	.	.
.	.	8e/	.	.	.	.
.	.	8f/	.	.	.	.
.	.	8a/J	.	.	.	.
=154	=154	=154	=154	=154	=154	=154
!	!	!LO:TX:b:i:t=slentando	!	!	!	!
2.E/_	2.AA\_	4cc\)	.	2.r	.	.
.	.	(8A/L	.	.	.	.
.	.	8B/	.	.	.	.
.	.	8c/	.	.	.	.
.	.	8e/J	.	.	.	.
=155	=155	=155	=155	=155	=155	=155
4E/]	4AA\]	4a/)	.	2.r	.	.
4r	4ryy	4r	.	.	.	.
4r	4ryy	4r	.	.	.	.
*v	*v	*	*	*	*	*
=156	=156	=156	=156	=156	=156
2.AAA;</ 2.EE 2.AA	2.A;>/ 2.e 2.a	ppp	2.r;>	.	.
==	==	==	==	==	==
*-	*-	*-	*-	*-	*-
!!!system-decoration: s1{(s2,s3)}
!!!RDF**kern: < = below
!!!RDF**kern: > = above
!!!ENC: Andrzej Gręziak
!!!END: 2022-03-22
!!!AIN: 1 piano 1 vox
!!!ENC: Marta Chmielewska
!!!END: 2022-03-26
